X:1
T:Bull Moose
C:Andy De Jarlis
R:reel
N:Emma Lake Tape, Around CD
N:SKELETON ONLY — chords/structure from the scan; each note is the chord root (single eighth) as a melody anchor for hand entry (scan too degraded to OMR/read pitches)
L:1/8
M:C|
I:linebreak $
K:D
V:1 treble
V:1
 "D"D"C"C |"D"D"Am"A |"C"C"G/B"G |"G"G"C"C |$
 "D"D"C"C |"D"D"Am"A |"C"C"G/B"G |"Em"E"D"D |$
 "D"D |"C"C"G"G |"D"D |"A"A"D"D |$
 "D"D |"C"C"G"G |"D"D"Am7"A |"D"D |
